icon-svg/panel-door-open.svg

<?xml version="1.0" encoding="UTF-8"?>
<svg width="24px" height="24px" viewBox="0 0 24 24" version="1.1" fill="#44739e" xmlns="http://www.w3.org/2000/svg" xmlns:xlink="http://www.w3.org/1999/xlink">
            <path d="m 22.699219,2.140625 -11.985389,-0.00507 0.0069,0.9933486 v 0 V 22.169922 3.1289062 L 1.3984375,3.1015625 1.3691406,22.169922 v 0.759766 H 22.699219 Z m -10.59961,1.0898438 h 9.339844 l 0.05498,18.9175262 -9.394827,0.02192 z M 2.9199219,4.0507812 h 3.4199219 l 0.00687,2.8276284 -3.4199219,0.00687 z m 4.0703125,0 h 3.3789066 v 2.8138827 l -3.3720337,0.00687 z m -3.859375,0.1894532 v 2.4394531 h 3 V 4.2402344 Z m 4.0488281,0 V 6.6796875 H 10.179688 V 4.2402344 Z M 3.5292969,4.5800781 H 5.7304688 V 6.3203125 H 3.5292969 Z m 4.0507812,0 H 9.7890625 V 6.3203125 H 7.5800781 Z M 3.75,4.7402344 v 1.390625 h 1.7597656 v -1.390625 z m 4.0507812,0 V 6.140625 H 9.5605469 V 4.7402344 Z M 2.9199219,7.7597656 H 6.3398438 V 13.199219 H 2.9199219 Z m 4.0703125,0 H 10.369141 V 13.199219 H 6.9902344 Z m -3.859375,0.2597656 v 4.9609378 h 3 V 8.0195312 Z m 4.0488281,0 V 12.980469 H 10.179688 V 8.0195312 Z M 3.5292969,8.4902344 H 5.7304688 V 12.519531 H 3.5292969 Z m 4.0507812,0 H 9.7890625 V 12.519531 H 7.5800781 Z M 3.75,8.75 v 3.539062 H 5.5097656 V 8.75 Z m 4.0605469,0 v 3.539062 H 9.5703125 V 8.75 Z m -4.890625,5.410156 h 3.4199219 v 6.080078 H 2.9199219 Z m 4.0703125,0 h 3.3789066 v 6.080078 H 6.9902344 Z m -3.7910156,0.240235 v 5.628906 h 2.9003906 v -5.628906 z m 4,0 v 5.628906 h 2.9003902 v -5.628906 z m -3.7597657,0.208984 h 2.3398438 v 5.179687 H 3.4394531 Z m 4.0800781,0 h 2.3007813 v 5.179687 H 7.5507812 Z M 3.75,14.820312 v 4.779297 h 1.7890625 v -4.779297 z m 4,0 v 4.779297 h 1.8203125 v -4.779297 z"></path>

</svg>

<svg xmlns="http://www.w3.org/2000/svg" fill="#44739e" viewBox="0 0 24 24"><path d="m22.6992 2.1406-11.9854-.005.007.9933v19.041V3.129l-9.3224-.0273L1.3691 22.17v.7598h21.3301ZM12.0996 3.2305h9.3399l.055 18.9175-9.3949.022zM2.92 4.0508h3.42l.0068 2.8276-3.42.0069zm4.0703 0h3.379v2.8139l-3.372.0068zm-3.8593.1894v2.4395h3V4.2402Zm4.0488 0v2.4395h3V4.2402Zm-3.6504.3399h2.2012v1.7402H3.5293Zm4.0508 0h2.209v1.7402H7.58ZM3.75 4.7402V6.131h1.7598V4.7402zm4.0508 0v1.4004h1.7597V4.7402ZM2.9199 7.7598h3.42v5.4394h-3.42Zm4.0703 0h3.379v5.4394h-3.379Zm-3.8593.2597v4.961h3v-4.961Zm4.0488 0v4.961h3v-4.961Zm-3.6504.4707h2.2012v4.0293H3.5293Zm4.0508 0h2.209v4.0293H7.58ZM3.75 8.75v3.539h1.7598V8.75Zm4.0605 0v3.539h1.7598V8.75ZM2.92 14.1602h3.42v6.08H2.92Zm4.0703 0h3.379v6.08h-3.379Zm-3.791.2402v5.6289h2.9004v-5.629zm4 0v5.6289h2.9004v-5.629zm-3.7597.209h2.3398v5.1797H3.4395Zm4.08 0h2.3008v5.1797H7.5508Zm-3.7695.211v4.7792h1.789v-4.7793zm4 0v4.7792h1.8203v-4.7793z"/></svg>
